X: 6629
T: Cavers Of Kirkcudbright
R: jig
M: 6/8
K: Fmajor
F2c cAc|cdc AGA|F2c cAc|efe dcA|
F2c cAc|cdc AGA|FBA GFD|1 zBA GFc:|2 D6||
|:~d2A eAf-|fgf edc|dAA eAf-|fga g2f|
~d2A eAf-|fgf edc|ABA GFD|1 zBA Gfe:|2 zBA GFE||

